X:1
T:Title
%%score { ( 1 3 ) | ( 2 4 ) }
L:1/8
M:4/4
K:G
V:1 treble nm="Grand Piano"
V:3 treble 
V:2 bass 
V:4 bass 
V:1
 z4 z2[Q:1/4=100] D>D | G>G G>A B2 A>G | [EG]>[EG] [EG]>[CE] [B,D]2 [B,D]>[B,D] | G>G G>A B2 B>B | %4
[M:9/8] A>GF- F/G/ [FA]2- [FA]B>c |[M:4/4] d>^c d>e d2 [GB]>[FA] | %6
[M:9/8] [EG]>[E^G][EA]- [EA]/[EB]/ [Ec]2- [Ec][Ec]>[Ec] |[M:4/4] B3 A G2 F2 |[M:3/4] [G,B,G]6 | %9
[M:1/4] B>c |[M:4/4] d6 z2 | B6 z2 | A6 z2 | [GB]6 z2 | d6 z2 | [Ge]6 z2 | %16
 [DGB]3 [CFA] [B,DG]2 .[A,DF]2 |[M:3/4] [B,DG]6 |] %18
V:2
 z4 z2 [G,B,]>[G,B,] | [G,B,D]>[G,B,D] [G,B,D]>[G,CD] [G,D]2 [G,CD]>[G,B,D] | %2
 [C,C]>[C,C] [C,C]>[C,G,] [G,,G,]2 [G,,G,]>[G,,G,] | %3
 [G,B,D]>[G,B,D] [G,B,D]>[G,CD] [G,D]2 [G,D]>[G,D] | %4
[M:9/8] [F,D]>[E,^CE][D,D]- [D,D]/[D,B,D]/ [D,A,]2- [D,A,][K:treble][G,G]>[G,A,G] | %5
[M:4/4] [G,B,G]>[G,_B,G] [G,=B,G]>[G,CG] [G,B,G]2[K:bass] [F,D]>[D,C] | %6
[M:9/8] [E,B,]>[E,B,][C,A,]- [C,A,]/[B,,^G,]/ [A,,A,]2- [A,,A,][C,G,]>[C,G,] | %7
[M:4/4] [D,G,D]3 [D,F,D] [B,D]2 [D,A,C]2 |[M:3/4] G,,6 |[M:1/4] G,>A, | %10
[M:4/4] z2 G,>G, G,>[K:treble][G,B,G] [G,CG]>[G,B,G] | [G,G]2 [G,D]>[G,D] [G,D]2 G>G | %12
 F6[K:bass] z2 | G,>G, G,>G, G,2 G,>A, | B,6 z2 | [C,C]2 C,>C, C,2 C,>C, | D,3 D, D,2 z C | %17
[M:3/4] G,,6 |] %18
V:3
 x8 | x8 | x8 | x8 |[M:9/8] x9 |[M:4/4] x8 |[M:9/8] x9 |[M:4/4] x8 |[M:3/4] x6 |[M:1/4] x2 | %10
[M:4/4] z2 G>G G>d e>d | z2 G>G G2 B>B | z2 D>D D>[DAc] [DGB]>[DFA] | D>D D>D D2 B>c | %14
 z2 G>G G>[DGB] [CGc]>[Gd] | z2 C>C C2 [EGc]>[EGc] | x8 |[M:3/4] x6 |] %18
V:4
 x8 | x8 | x8 | x8 |[M:9/8] x7[K:treble] x2 |[M:4/4] x6[K:bass] x2 |[M:9/8] x9 |[M:4/4] x8 | %8
[M:3/4] x6 |[M:1/4] x2 |[M:4/4] B,6[K:treble] z2 | x8 | z2[K:bass] D,>D, D,>D, D,>D, | x8 | %14
 z2 G,>G, G,>=F, E,>[D,B,] | x8 | z4 z2 D,2 |[M:3/4] x6 |] %18

